!!!!SEGMENT: pl-wnifc--6730-n--009_sowinski-wojciech--chants-religieux-de-la-pologne-op-93-on-vitun-ange-apparaitre-kolenda.krn
!!!cenid: 18xx:4023
!!!COM: Sowiński, Wojciech
!!!COM-rismID: pe30008543
!!!CDT: ~1803-1880/03/05
!!!CNT:
!!!OTL: Chants religieux de la Pologne op. 93
!!!PDT: 1830
!!!AGN:
!!!SMS-siglum: PL-Wnifc
!!!SMS-shelfmark: 6730/n
!!!SMS-shelfwork: 009 W
!!!SMS-variant:
!!!SMS-altvar:
!!!NIFC-rismSourceID: 1001138221
!!!NIFC-rismChildID: 1001138231
!!!NIFC-islandoraID: nifc:213350
!!!URL-pdf-islandora: https://repozytorium.nifc.pl/islandora/object/nifc%3A213350/datastream/PDF/view
!!!URL-scan: https://polish.musicsources.pl/pl/lokalizacje/galeria/druki-muzyczne/16913 @EN{Scan on Polish Music Sources Website} @PL{Skany w portalu Dziedzictwo Muzyki Polskiej w otwartym dostępie}
!!!IIIF:
!!!ONB-nifc: UWAGA: str. 36-40
!!!AIN: 1 calto 2 organ 2 soprn
!!!key: G
**kern	**kern	**dynam	**kern	**text	**kern	**text	**kern	**text	**dynam
*part5	*part4	*part4	*part3	*part3	*part2	*part2	*part1	*part1	*part1
*staff5	*staff4	*	*staff3	*staff3	*staff2	*staff2	*staff1	*staff1	*
*I"Organo	*I"ORGUE.	*	*I"CONTRALTO.	*	*I"2.d DESSUS.	*	*I"1.er DESSUS.	*	*
*	*I'org	*	*I'Contra-A	*	*I'S 2	*	*I'S 1	*	*
*Iorgan	*Iorgan	*	*Icalto	*	*Isoprn	*	*Isoprn	*	*
*ICklav	*ICklav	*	*ICvox	*	*ICvox	*	*ICvox	*	*
*clefF4	*clefG2	*	*clefG2	*	*clefG2	*	*clefG2	*	*
*k[f#]	*k[f#]	*	*k[f#]	*	*k[f#]	*	*k[f#]	*	*
*G:	*G:	*	*G:	*	*G:	*	*G:	*	*
*M4/4	*M4/4	*	*M4/4	*	*M4/4	*	*M4/4	*	*
*met(c)	*met(c)	*	*met(c)	*	*met(c)	*	*met(c)	*	*
=1	=1	=1	=1	=1	=1	=1	=1	=1	=1
*^	*	*	*	*	*	*	*	*	*
!	!	!	!	!	!	!	!	!LO:TX:a:t=Mouv! large.	!	!
!	!	!LO:TX:a:t=Mouv! large.	!	!	!	!	!	!	!	!
4B/	2G\	4g/	mf	1r	.	1r	.	1r	.	.
8A/L	.	8f#/L	.	.	.	.	.	.	.	.
8B/J	.	8g/J	.	.	.	.	.	.	.	.
4c/	2G\	4a/	.	.	.	.	.	.	.	.
8B/L	.	8g/L	.	.	.	.	.	.	.	.
8c/J	.	8a/J	.	.	.	.	.	.	.	.
=2	=2	=2	=2	=2	=2	=2	=2	=2	=2	=2
4.d/	[2G\	4.b/	.	1r	.	1r	.	1r	.	.
8c/	.	8a/	.	.	.	.	.	.	.	.
4B/	4G\]	4g/	.	.	.	.	.	.	.	.
4r	4ryy	8g/L	.	.	.	.	.	.	.	.
.	.	8b/J	.	.	.	.	.	.	.	.
*v	*v	*	*	*	*	*	*	*	*	*
=3	=3	=3	=3	=3	=3	=3	=3	=3	=3
4GG/ 4G	4g^\ 4b 4dd	f	1r	.	1r	.	1r	.	.
4GG/ 4G	4g^\ 4b 4dd	.	.	.	.	.	.	.	.
4CC/ 4C	4g^\ 4cc 4ee	.	.	.	.	.	.	.	.
4CC/ 4C	4g^\ 4cc 4ee	.	.	.	.	.	.	.	.
=4	=4	=4	=4	=4	=4	=4	=4	=4	=4
2GG/ 2G	(8g\L 8b 8dd	.	1r;	.	1r;	.	1r;	.	.
.	8a\ 8cc	.	.	.	.	.	.	.	.
.	8g\ 8b	.	.	.	.	.	.	.	.
.	8a\J) 8cc	.	.	.	.	.	.	.	.
2D;\	2f#;</ 2a	sf	.	.	.	.	.	.	.
=5	=5	=5	=5	=5	=5	=5	=5	=5	=5
2GG/ 2G	4B/ 4d 4g	f	4B/	On	4g/	On	4g/	On	.
.	4B/ 4d 4g	.	4B/	vit	4d/	vit	4g/	vit	.
2DD/ 2D	4d/ 4f# 4a	.	4d/	un	4f#/	un	4a/	un	.
.	4d/ 4f# 4a	.	4d/	an	4f#/	an	4a/	an-	.
!LO:LB:g=original	!LO:LB:g=original	!	!LO:LB:g=original	!	!LO:LB:g=original	!	!LO:LB:g=original	!	!
=6	=6	=6	=6	=6	=6	=6	=6	=6	=6
4.GGG/ 4.GG	4.d/ 4.g 4.b	.	4.d/	-ge ap-	4.g/	-ge ap-	4.b/	-ge ap-	.
8DD/ 8D	8d/ 8f# 8a	.	8d/	-pa-	8f#/	-pa-	8a/	-pa-	.
4GG/ 4G	8B/L 8g	.	4B/	-rai-	4g/	-rai-	4g/	-rai-	.
.	8d/	.	.	.	.	.	.	.	.
4r	8g/	.	4d/	-tre	4g/	-tre	4b/	-tre	.
.	8b/J	.	.	.	.	.	.	.	.
=7	=7	=7	=7	=7	=7	=7	=7	=7	=7
4GG/ 4G	4d\ 4g 4b 4dd	.	4g/	é-	4b\	é-	4dd\	é-	.
4GG/ 4G	4d\ 4g 4b 4dd	.	4g/	-ela-	4b\	-ela-	4dd\	-ela-	.
4CC/ 4C	4e\ 4g 4cc 4ee	.	4g/	-tant	4cc\	-tant	4ee\	-tant	.
4CC/ 4C	4e\ 4g 4cc 4ee	.	4g/	et	4cc\	et	4ee\	et	.
=8	=8	=8	=8	=8	=8	=8	=8	=8	=8
2GG\ 2G	(8b\L 8dd	<	4g/	ra-	(8b/L	ra-	(8dd\L	ra-	.
.	8a\ 8cc	.	.	.	8a/J)	.	8cc\J)	.	.
.	8g\ 8b	.	4g/	-di-	(8g/L	-di-	(8b\L	-di-	.
.	8a\J) 8cc	[ >	.	.	8a/J)	.	8cc\J)	.	.
8GG\L 8G	2b\ 2dd	]]	4g/	-eux	4b/	-eux	4dd\	-eux	.
8GG\	.	.	.	.	.	.	.	.	.
8BB\	.	.	4r	.	4r	.	4r	.	.
8D\J	.	.	.	.	.	.	.	.	.
=9	=9	=9	=9	=9	=9	=9	=9	=9	=9
2GG\ 2G	4g\ 4b 4dd	.	2g/	Il	2b\	Il	2dd\	Il	.
.	4g\ 4gg	.	.	.	.	.	.	.	.
2CC/ 2C	2g\ 2cc 2ee	sf	2c/	dit	2g/	dit	2ee\	dit	.
=10	=10	=10	=10	=10	=10	=10	=10	=10	=10
4GG/	4d^<\ 4b 4dd	.	4g/	le	4b\	le	4dd\	le	.
4BB/	4d^<\ 4b 4dd	.	4g/	Christ	4b\	Christ	4dd\	Christ	.
4DD/ 4D	4d^<\ 4a 4cc	.	4d/	vient	4a/	vient	4cc\	vient	.
4FF#/ 4F#	4d^<\ 4a 4cc	.	4f#/	de	4a/	de	4cc\	de	.
!LO:LB:g=original	!LO:LB:g=original	!	!LO:LB:g=original	!	!LO:LB:g=original	!	!LO:LB:g=original	!	!
=11	=11	=11	=11	=11	=11	=11	=11	=11	=11
4GG\ 4G	4d^</ 4g 4b	.	2g/	nai-	2g/	nai-	2b\	nai-	.
4BB\ 4B	4d^</ 4g 4b	.	.	.	.	.	.	.	.
4D\ 4d	4d^</ 4f# 4a	.	4d/	-tre	4f#/	-tre	4a/	-tre	.
4DD/ 4D	4d^</ 4f# 4a	.	4r	.	4r	.	4r	.	.
=12	=12	=12	=12	=12	=12	=12	=12	=12	=12
4GGG/ 4GG	4d\ 4b 4dd	.	2B/	Peu-	2g/	Peu-	2dd\	Peu-	.
4BBB/ 4BB	4d\ 4b 4dd	.	.	.	.	.	.	.	.
.	(8qdd/	.	.	.	.	.	.	.	.
4DD/ 4D	8a\L) 8cc	.	4d/	-ples	4a/	-ples	4cc\	-ples	.
.	8g\ 8b	.	.	.	.	.	.	.	.
4FF#/ 4F#	8a\ 8cc	.	4d/	soy-	4a/	soy-	4cc\	soy-	.
.	8b\J 8dd	.	.	.	.	.	.	.	.
=13	=13	=13	=13	=13	=13	=13	=13	=13	=13
8GG\L 8G	4g\ 4b	<	4d/	-ez	4g/	-ez	4b\	-ez	.
8B\	.	.	.	.	.	.	.	.	.
8c\	4g\ 4b	.	4d/	joy-	4g/	joy-	4b\	joy-	.
8c#X\J	.	.	.	.	.	.	.	.	.
2d\	2f#/ 2a	[	2d/	-eux	2f#/	-eux	2a/	-eux	.
=14	=14	=14	=14	=14	=14	=14	=14	=14	=14
2GG\ 2G	4.d\ 4.b 4.dd	.	4.g^>/	C`est	4.b^>/	C`est	4.dd^\	C`est	.
.	8a\ 8cc	.	8g/	le	8a/	le	8cc\	le	.
4GG\ 4G	4g\ 4b	.	4g/	fils	4b/	fils	4b\	fils	.
(8.BBB^>/L 8.BB	(8.b^>\L 8.dd	.	(8.B/L	du	(8.b/L	du	(8.dd^\L	du	.
16CC/Jk) 16C	16a\Jk) 16cc	.	16c/Jk)	.	16a/Jk)	.	16cc\Jk)	.	.
=15	=15	=15	=15	=15	=15	=15	=15	=15	=15
4DD/ 4D	4g/ 4b	.	4d/	roi	4g/	roi	4b\	roi	.
4DD/ 4D	4c/ 4f# 4a	.	4c/	des	4f#/	des	4a/	des	.
2GG/ 2G	2B/ 2g	.	2B/	cieux	2g/	cieux	2g/	cieux	.
!LO:LB:g=original	!LO:LB:g=original	!	!LO:LB:g=original	!	!LO:LB:g=original	!	!LO:LB:g=original	!	!
=16	=16	=16	=16	=16	=16	=16	=16	=16	=16
!	!	!	!	!	!	!	!	!	!LO:DY:a
4GG/ 4G	4g\ 4b 4dd	f	2g/	Il	2b/	Il	(4dd\	Il	f
4GGG/ 4GG	4g\ 4b 4gg	.	.	.	.	.	4gg\)	.	.
2CC/ 2C	2g\ 2cc 2ee	sf	2c/	dit	2g/	dit	2ee\	dit	.
=17	=17	=17	=17	=17	=17	=17	=17	=17	=17
4GGG/ 4GG	4d^<\ 4g 4b 4dd	.	4B/	le	4g/	le	4dd\	le	.
4BBB/ 4BB	4d^<\ 4g 4b 4dd	.	4B/	Christ	4g/	Christ	4dd\	Christ	.
4DD/ 4D	4d^<\ 4a 4cc	.	4d/	vient	4a/	vient	4cc\	vient	.
4FF#/ 4F#	4d^<\ 4a 4cc	.	8e/L	de	4a/	de	4cc\	de	.
.	.	.	8f#/J	.	.	.	.	.	.
=18	=18	=18	=18	=18	=18	=18	=18	=18	=18
4GG\ 4G	4d^/ 4g 4b	.	2g/	nai-	2g/	nai-	2b/	nai-	.
4BB\ 4B	4d^/ 4g 4b	.	.	.	.	.	.	.	.
4D\ 4d	2f#^/ 2a	.	4d/	-tre	4f#/	-tre	4a/	-tre	.
4C\ 4c	.	.	4r	.	4r	.	4r	.	.
=19	=19	=19	=19	=19	=19	=19	=19	=19	=19
2BB\ 2B	4d\ 4g 4dd	.	2B/	Peu-	(4g/	Peu-	2dd^\	Peu-	.
.	4d\ 4g 4dd	.	.	.	4f#/)	.	.	.	.
.	8qdd/	.	.	.	.	.	.	.	.
2C\ 2c	8a\L 8cc	.	4e/	-ples	4a/	-ples	4cc\	-ples	.
.	8g#X\ 8b	.	.	.	.	.	.	.	.
.	8a\ 8cc	.	4e/	soy-	4a/	soy-	4cc\	soy-	.
.	8b\J 8dd	.	.	.	.	.	.	.	.
=20	=20	=20	=20	=20	=20	=20	=20	=20	=20
*^	*	*	*	*	*	*	*	*	*
(<8d/L	4D\	4gn/ 4b	.	8d/L	-ez	4g/	-ez	4b\	-ez	.
8B/	.	.	.	8B/J	.	.	.	.	.	.
8c/	4D\	4g/ 4b	.	8c/L	joy-	4g/	joy-	4b\	joy-	.
8c#X/J)	.	.	.	8c#X/J	.	.	.	.	.	.
2D/	2DD/	16f#/LL 16a	<	2d/	-eux	2f#/	-eux	2a/	-eux	.
!LO:LB:g=original	!LO:LB:g=original	!	!	!LO:LB:g=original	!	!LO:LB:g=original	!	!LO:LB:g=original	!	!
.	.	16d/	.	.	.	.	.	.	.	.
.	.	16e/	.	.	.	.	.	.	.	.
.	.	16f#/JJ	.	.	.	.	.	.	.	.
.	.	16g\LL	.	.	.	.	.	.	.	.
.	.	16a\	.	.	.	.	.	.	.	.
.	.	16b\	.	.	.	.	.	.	.	.
.	.	16cc\JJ	[[	.	.	.	.	.	.	.
!	!	!LO:LB:g=original	!	!	!	!	!	!	!	!
*v	*v	*	*	*	*	*	*	*	*	*
=21	=21	=21	=21	=21	=21	=21	=21	=21	=21
2.GGG/ 2.GG	4.b\ 4.dd	f	4.B/	C`est	4.g/	C`est	4.dd\	C`est	.
.	8a\ 8cc	.	8d/	le	8a/	le	8cc\	le	.
.	4g\ 4b	.	4g/	fils	4g/	fils	4b\	fils	.
8.BBB/L 8.BB	8.dd\L 8.ddd	sf	(8.b/L	du	(8.b/L	du	(8.dd\L	du	.
16CC/Jk 16C	16cc\Jk 16aa 16ccc	.	16a/Jk)	.	16a/Jk)	.	16cc\Jk)	.	.
=22	=22	=22	=22	=22	=22	=22	=22	=22	=22
4DD/ 4D	4b\ 4gg 4bb	.	4d/	roi	4g/	roi	4b\	roi	.
4DD/ 4D	4a\ 4cc 4ff# 4aa	.	4c/	des	4f#/	des	4a/	des	.
2GGG;/ 2GG	2g;<\ 2b 2gg	.	2B/	eieux	2B/	eieux	2g/	eieux	.
=23	=23	=23	=23	=23	=23	=23	=23	=23	=23
4GG\ 4G	4g\ 4b 4dd	.	1r	.	1r	.	1r	.	.
4GG\ 4G	4g\ 4b 4gg	.	.	.	.	.	.	.	.
2CC/ 2C	2g^<\ 2cc 2ee	sf	.	.	.	.	.	.	.
=24	=24	=24	=24	=24	=24	=24	=24	=24	=24
4GG\ 4G	4b\ 4dd	.	1r	.	1r	.	1r	.	.
4GG\ 4G	4b\ 4dd	.	.	.	.	.	.	.	.
4DD#X/ 4D#X	4a\ 4cc	.	.	.	.	.	.	.	.
4DD#/ 4D#	4a\ 4cc	.	.	.	.	.	.	.	.
=25	=25	=25	=25	=25	=25	=25	=25	=25	=25
4EE/ 4E	4g/ 4b	.	1r	.	1r	.	1r	.	.
4EE/ 4E	4g/ 4b	.	.	.	.	.	.	.	.
2DD#X/ 2D#X	2f#/ 2a 2b	.	.	.	.	.	.	.	.
!LO:PB:g=original	!LO:PB:g=original	!	!LO:PB:g=original	!	!LO:PB:g=original	!	!LO:PB:g=original	!	!
=26	=26	=26	=26	=26	=26	=26	=26	=26	=26
4EE/ 4E	4e/ 4g 4b	.	1r	.	1r	.	1r	.	.
4DD/ 4Dn	4e/ 4g#X 4b	.	.	.	.	.	.	.	.
4CC/ 4C	4e/ 4a 4cc	.	.	.	.	.	.	.	.
4DD/ 4D	4f#/ 4a	.	.	.	.	.	.	.	.
=27	=27	=27	=27	=27	=27	=27	=27	=27	=27
4GG/ 4D	4g/ 4b	.	1r	.	1r	.	1r	.	.
4r	4r	.	.	.	.	.	.	.	.
4GGG/ 4GG	4g\ 4b 4gg	.	.	.	.	.	.	.	.
4r	4r	.	.	.	.	.	.	.	.
=28	=28	=28	=28	=28	=28	=28	=28	=28	=28
!	!	!	!	!	!	!	!LO:TX:a:t=2.e STROPHE.	!	!LO:DY:a
2GG\ 2G	8g/L	f	4B/	Ce	4g/	Ce	4g/	Ce	f
.	8B/	.	.	.	.	.	.	.	.
.	8d/	.	4B/	grand	4d/	grand	4g/	grand	.
.	8g/J	.	.	.	.	.	.	.	.
2DD/ 2D	8a/L	.	4d/	Dieu	4f#/	Dieu	4a/	Dieu	.
.	8d/	.	.	.	.	.	.	.	.
.	8f#/	.	4d/	plein	4f#/	plein	4a/	plein	.
.	8a/J	.	.	.	.	.	.	.	.
=29	=29	=29	=29	=29	=29	=29	=29	=29	=29
4.GG\ 4.G	8b/L	.	4.d/	de	4.g/	de	4.b/	de	.
.	8g/	.	.	.	.	.	.	.	.
.	8d/	.	.	.	.	.	.	.	.
8D/	8a/J	.	8d/	elé-	8f#/	elé-	8a/	elé-	.
4BB/	8g/L	.	4B/	-men-	4g/	-men-	4g/	-men-	.
.	8d/	.	.	.	.	.	.	.	.
4GG/	8g/	.	4d/	-ce	4g/	-ce	4b/	-ce	.
.	8b/J	.	.	.	.	.	.	.	.
=30	=30	=30	=30	=30	=30	=30	=30	=30	=30
2GG/ 2G	8dd\L	.	2g/	dans	2b/	dans	4dd\	dans	.
.	8b\	.	.	.	.	.	.	.	.
.	8dd\	.	.	.	.	.	4ryy	.	.
.	8g\J	.	.	.	.	.	.	.	.
2CC/ 2C	8ee\L	.	4c/	un	4g/	un	4ee\	un	.
.	8cc\	.	.	.	.	.	.	.	.
.	8ee\	.	4c/	pau-	4g/	pau-	4ee\	pau-	.
.	8g\J	.	.	.	.	.	.	.	.
!LO:LB:g=original	!LO:LB:g=original	!	!LO:LB:g=original	!	!LO:LB:g=original	!	!LO:LB:g=original	!	!
=31	=31	=31	=31	=31	=31	=31	=31	=31	=31
[2GG\ [2G	(8b\L 8dd	.	4g/	-vre	(8b\L	-vre	(8dd\L	-vre	.
.	8a\ 8cc	.	.	.	8a\J)	.	8cc\J)	.	.
.	8g\ 8b	.	4g/	ber-	(8g\L	ber-	(8b\L	ber-	.
.	8a\J 8cc	.	.	.	8a\J)	.	8cc\J)	.	.
8GG\L] 8G]	4b\) 4dd	.	4g/	-ceau	4b/	-ceau	4dd\	-ceau	.
8GG\	.	.	.	.	.	.	.	.	.
8BB\	4r	.	4r	.	4r	.	4r	.	.
8D\J	.	.	.	.	.	.	.	.	.
=32	=32	=32	=32	=32	=32	=32	=32	=32	=32
2GG\ 2G	4g\ 4b 4dd	<	2g/	du	2b/	du	2dd\	du	.
.	4g\ 4b 4gg	.	.	.	.	.	.	.	.
2CC/ 2C	2g\ 2cc 2ee	[ sf	2c/	mon-	2g/	mon-	2ee\	mon-	.
=33	=33	=33	=33	=33	=33	=33	=33	=33	=33
4GGG/ 4GG	4d\ 4g 4dd	.	4B/	-de a	4g/	-de a	4dd\	-de a	.
4BBB/ 4BB	4d\ 4g 4dd	.	4B/	mis	4g/	mis	4dd\	mis	.
.	8qdd/	.	.	.	.	.	.	.	.
4DD/ 4D	8a\L 8cc	.	4d/	l`es-	4a/	l`es-	4cc\	l`es-	.
.	8g#X\ 8b	.	.	.	.	.	.	.	.
4FF#/ 4F#	8a\ 8cc	.	4f#/	-pé-	4a/	-pé-	4cc\	-pé-	.
.	8b\J 8dd	.	.	.	.	.	.	.	.
=34	=34	=34	=34	=34	=34	=34	=34	=34	=34
4GG\ 4G	4g/ 4b	.	(2g/	-ran-	(2g/	-ran-	(2b/	-ran-	.
4BB\ 4B	4g/ 4b	.	.	.	.	.	.	.	.
4D\ 4d	2f#/ 2a	.	4d/)	-ce	4f#/)	-ce	4a/)	-ce	.
4C\ 4c	.	.	4r	.	4r	.	4r	.	.
=35	=35	=35	=35	=35	=35	=35	=35	=35	=35
*	*^	*	*	*	*	*	*	*	*
2BB\ 2B	2dd/	4g\	.	2B/	Et	4g/	Et	2dd\	Et	.
.	.	4f#\	.	.	.	4f#/	.	.	.	.
2C\ 2c	2dd/	4e\	.	4c/	ce	4e/	ce	4cc\	ce	.
.	.	4a\	.	4e/	vi-	4a/	vi-	4cc\	vi-	.
!LO:LB:g=original	!LO:LB:g=original	!LO:LB:g=original	!	!LO:LB:g=original	!	!LO:LB:g=original	!	!LO:LB:g=original	!	!
*	*v	*v	*	*	*	*	*	*	*	*
=36	=36	=36	=36	=36	=36	=36	=36	=36	=36
(8D\L 8d	2g/ 2b	.	4d/	-vant	4g/	-vant	4b\	-vant	.
8B\	.	.	.	.	.	.	.	.	.
8c\	.	.	4d/	flam	4g/	flam	4b\	flam	.
8c#X\J)	.	.	.	.	.	.	.	.	.
2d\	2f#/ 2a	.	2d/	bleau	2f#/	bleau	2a\	bleau	.
=37	=37	=37	=37	=37	=37	=37	=37	=37	=37
*	*^	*	*	*	*	*	*	*	*
2GG/ 2G	4.b/ 4.dd	2d\	f	4.B/	Chas-	4.b/	Chas-	4.dd\	Chas-	.
.	8a/ 8cc	.	.	8c/	-se	8a/	-se	8cc\	-se	.
4GG/ 4G	4g/ 4b	2ryy	.	4d/	l`om-	4g/	l`om-	4b\	l`om-	.
8.BBB/L 8.BB	8.b\L 8.dd	.	.	(8.B/L	-bre	(8.b/L	-bre	(8.dd\L	-bre	.
16CC/Jk 16C	16a\Jk 16cc	.	.	16c/Jk)	.	16a/Jk)	.	16cc\Jk)	.	.
*	*v	*v	*	*	*	*	*	*	*	*
=38	=38	=38	=38	=38	=38	=38	=38	=38	=38
4DD/ 4D	4g/ 4b	.	4d/	du	4g/	du	4b/	du	.
4DD/ 4D	4f#/ 4a	.	4d/	tom-	4f#/	tom-	4a/	tom-	.
2GG/ 2G	2B/ 2g	.	2g/	-beau	2g/	-beau	2g/	-beau	.
=39	=39	=39	=39	=39	=39	=39	=39	=39	=39
2GG/ 2G	4g\ 4b 4dd	f	2g/	Du	2b/	Du	(4dd\	Du	.
.	4g\ 4b 4gg	.	.	.	.	.	4gg\)	.	.
2CC/ 2C	2g\ 2cc 2ee	.	2c/	mon-	2g/	mon-	2ee\	mon-	.
=40	=40	=40	=40	=40	=40	=40	=40	=40	=40
4GG'/	4d'\ 4b 4dd	.	4g/	-de	4b/	-de	4dd\	-de	.
4BB'/	4d'\ 4b 4dd	.	4g/	ami	4b/	ami	4dd\	ami	.
4D'\	4d'\ 4a 4cc	.	4d/	l`es-	4a/	l`es-	4cc\	l`es-	.
4F#'\	4d'\ 4a 4cc	.	(8e/L	-pe-	4a/	-pe-	4cc\	-pe-	.
.	.	.	8f#/J)	.	.	.	.	.	.
!LO:LB:g=original	!LO:LB:g=original	!	!LO:LB:g=original	!	!LO:LB:g=original	!	!LO:LB:g=original	!	!
=41	=41	=41	=41	=41	=41	=41	=41	=41	=41
4G'\	4d'/ 4g 4b	.	2g/	-ran-	2g/	-ran-	2b/	-ran-	.
4B'\	4d'/ 4g 4b	.	.	.	.	.	.	.	.
4d\	2f#^/ 2a	.	4d/	-ce	4f#/	-ce	4a/	-ce	.
4D'\	.	.	4r	.	4r	.	4r	.	.
=42	=42	=42	=42	=42	=42	=42	=42	=42	=42
4GG/	4g\ 4dd	.	2B/	Et	2g/	Et	2dd\	Et	.
4BB/	4g\ 4dd	.	.	.	.	.	.	.	.
.	8qdd/	.	.	.	.	.	.	.	.
4C/	(8a\L 8cc	.	4c/	ce	4e/	ce	4cc\	ce	.
.	8g#X\ 8b	.	.	.	.	.	.	.	.
4E\	8a\ 8cc	.	4e/	vi-	4a/	vi-	4cc\	vi-	.
.	8b\J) 8dd	.	.	.	.	.	.	.	.
=43	=43	=43	=43	=43	=43	=43	=43	=43	=43
4D\	4gn/ 4b	.	4d/	-vant	4g/	-vant	4b/	-vant	.
4d\	4g/ 4b	.	4d/	flam	4g/	flam	4b/	flam	.
4D\	(16f#\LL 16a	.	2d/	beau	2f#/	beau	2a/	beau	.
.	16d\	.	.	.	.	.	.	.	.
.	16e\	.	.	.	.	.	.	.	.
.	16f#\JJ	.	.	.	.	.	.	.	.
4DD/	16g\LL	.	.	.	.	.	.	.	.
.	16a\	.	.	.	.	.	.	.	.
.	16b\	.	.	.	.	.	.	.	.
.	16cc\JJ)	.	.	.	.	.	.	.	.
=44	=44	=44	=44	=44	=44	=44	=44	=44	=44
2GGG/ 2GG	4.d/ 4.b 4.dd	f	4g/	chas-	4.b/	chas-	4.dd\	chas-	.
.	.	.	4g/	-se	.	.	.	.	.
.	8a\ 8cc	.	.	.	8a/	-se	8cc\	-se	.
8GGG/L 8GG	4g/ 4b	.	4g/	l`om-	4g/	l`om-	4b\	l`om-	.
8AAA/ 8AA	.	.	.	.	.	.	.	.	.
8.BBB/ 8.BB	8.b\L 8.dd	sf	(8.B/L	-bre	(8.b/L	-bre	(8.dd\L	-bre	.
16CC/Jk 16C	16a\Jk 16cc	.	16c/Jk)	.	16a/Jk)	.	16cc\Jk)	.	.
!LO:LB:g=original	!LO:LB:g=original	!	!LO:LB:g=original	!	!LO:LB:g=original	!	!LO:LB:g=original	!	!
=45	=45	=45	=45	=45	=45	=45	=45	=45	=45
4DD/ 4D	4d/ 4g 4b	<	4d/	du	4g/	du	4b\	du	.
4DD/ 4D	4c/ 4f# 4a	.	4c/	tom-	4f#/	tom-	4a/	tom-	.
2GG/ 2G	2B/ 2g	[ f	2B/	-beau.	2g/	-beau.	2g/	-beau.	.
=46	=46	=46	=46	=46	=46	=46	=46	=46	=46
*^	*	*	*	*	*	*	*	*	*
4.G/	2G\	4.b\ 4.dd	>	1r	.	1r	.	1r	.	.
8A/	.	8a\ 8cc	.	.	.	.	.	.	.	.
4B/	4ryy	4g\ 4b	]	.	.	.	.	.	.	.
(8.B/L	4G\	(8.g\L 8.dd	.	.	.	.	.	.	.	.
16c/Jk)	.	16ee\Jk)	.	.	.	.	.	.	.	.
=47	=47	=47	=47	=47	=47	=47	=47	=47	=47	=47
4d/	2G\	4ff#\	.	1r	.	1r	.	1r	.	.
4B/	.	4gg\	.	.	.	.	.	.	.	.
4c/	2ryy	4ee\	.	.	.	.	.	.	.	.
4A/	.	4cc\ 4ff#	.	.	.	.	.	.	.	.
*v	*v	*	*	*	*	*	*	*	*	*
=48	=48	=48	=48	=48	=48	=48	=48	=48	=48
4G\	4b\ 4gg	.	1r	.	1r	.	1r	.	.
.	8qff#/	.	.	.	.	.	.	.	.
2G\ 2B	2b\ 2ee	.	.	.	.	.	.	.	.
4F#\ 4B	4a\ 4dd#X	.	.	.	.	.	.	.	.
=49	=49	=49	=49	=49	=49	=49	=49	=49	=49
2E\ 2B	2g\ 2ee	.	1r	.	1r	.	1r	.	.
2D\ 2d	2f#/ 2ddn	.	.	.	.	.	.	.	.
!LO:LB:g=original	!LO:LB:g=original	!	!LO:LB:g=original	!	!LO:LB:g=original	!	!LO:LB:g=original	!	!
=50	=50	=50	=50	=50	=50	=50	=50	=50	=50
!	!	!	!	!	!	!	!LO:TX:a:t=3.e STROPHE.	!	!LO:DY:a
2GG\ 2G	8g/L	f	4B/	Cé-	4g/	Cé-	4g/	Cé-	f
.	8B/	.	.	.	.	.	.	.	.
.	8d/	.	4B/	-lé-	4d/	-lé-	4g/	-lé-	.
.	8g/J	.	.	.	.	.	.	.	.
2DD/ 2D	8a/L	.	4d/	-brons	4f#/	-brons	4a/	-brons	.
.	8d/	.	.	.	.	.	.	.	.
.	8f#/	.	4d/	pleins	4f#/	pleins	4a/	pleins	.
.	8a/J	.	.	.	.	.	.	.	.
=51	=51	=51	=51	=51	=51	=51	=51	=51	=51
2GG\ 2G	8b/L	.	4.d/	d`al-	4.g/	d`al-	4.b/	d`al-	.
.	8g/	.	.	.	.	.	.	.	.
.	8d/	.	.	.	.	.	.	.	.
.	8dd/J	.	8e/	-lég	8f#/	-lég	8a/	-lég	.
2GG\ 2G	8g/L	sf	4B/	res-	4g/	res-	4g/	res-	.
.	8d/	.	.	.	.	.	.	.	.
.	8g/	.	4d/	-se	4g/	-se	4b/	-se	.
.	8b/J	.	.	.	.	.	.	.	.
=52	=52	=52	=52	=52	=52	=52	=52	=52	=52
2GG\ 2G	8ee\L	.	4g/	En	4b/	En	4dd\	En	.
.	8b\	.	.	.	.	.	.	.	.
.	8dd\	.	4g/	ce	4b/	ce	4dd\	ce	.
.	8g\J	.	.	.	.	.	.	.	.
2CC/ 2C	8ee\L	.	2c/	jour	2g/	jour	2ee\	jour	.
.	8cc\	.	.	.	.	.	.	.	.
.	8ee\	.	.	.	.	.	.	.	.
.	8g\J	.	.	.	.	.	.	.	.
=53	=53	=53	=53	=53	=53	=53	=53	=53	=53
[2GG\ [2G	(8b\L 8dd	.	4g/	so-	(8b/L	so-	(8dd\L	so-	.
.	8a\ 8cc	.	.	.	8a/J)	.	8cc\J)	.	.
.	8g\ 8b	.	4g/	-len-	(8g/L	-len-	(8b\L	-len-	.
.	8a\J) 8cc	.	.	.	8a/J)	.	8cc\J)	.	.
8GG\L] 8G]	4b\ 4dd	sf	4g/	-nel	4b/	-nel	4dd\	-nel	.
8GG\	.	.	.	.	.	.	.	.	.
8BB\	4r	.	4r	.	4r	.	4r	.	.
8D\J	.	.	.	.	.	.	.	.	.
!LO:PB:g=original	!LO:PB:g=original	!	!LO:PB:g=original	!	!LO:PB:g=original	!	!LO:PB:g=original	!	!
=54	=54	=54	=54	=54	=54	=54	=54	=54	=54
2GG/ 2G	4g\ 4b 4dd	.	2g/	Le	2b/	Le	2dd\	Le	.
.	4g\ 4b 4gg	.	.	.	.	.	.	.	.
2C/	2g\ 2cc 2ee	f	2c/	Dieu	2g/	Dieu	2ee\	Dieu	.
=55	=55	=55	=55	=55	=55	=55	=55	=55	=55
4GGG/ 4GG	4d\ 4g 4dd	.	4g/	qui	4b/	qui	4dd\	qui	.
4BBB/ 4BB	4d\ 4g 4dd	.	4g/	dans	4b/	dans	4dd\	dans	.
4DD/ 4D	8a\L 8cc	.	4d/	sa	4a/	sa	4cc\	sa	.
.	8g#X\ 8b	.	.	.	.	.	.	.	.
4FF#/ 4F#	8a\ 8cc	.	4d/	ten-	4a/	ten-	4cc\	ten-	.
.	8b\J 8dd	.	.	.	.	.	.	.	.
=56	=56	=56	=56	=56	=56	=56	=56	=56	=56
4GG\ 4G	4g/ 4b	.	2g/	-dres-	2g/	-dres-	2b\	-dres-	.
4BB\ 4B	4g/ 4b	.	.	.	.	.	.	.	.
4D\ 4d	2f#/ 2a	.	4d/	-se	4g/	-se	4a/	-se	.
4C\ 4c	.	.	4r	.	4r	.	4r	.	.
=57	=57	=57	=57	=57	=57	=57	=57	=57	=57
*	*^	*	*	*	*	*	*	*	*
2BB\ 2B	2dd/	4g\	.	2B/	souf-	2g/	souf-	2dd\	souf-	.
.	.	4f#\	.	.	.	.	.	.	.	.
2C\ 2c	2cc/	4e\	.	4c/	-frit	4a/	-frit	4cc\	-frit	.
.	.	4a\	.	8e/L	com-	4a/	comme-	4cc\	comme-	.
.	.	.	.	8f#/J	-me	.	.	.	.	.
*	*v	*v	*	*	*	*	*	*	*	*
=58	=58	=58	=58	=58	=58	=58	=58	=58	=58
(8D\L 8d	2g/ 2b	.	4g/	un	4g/	-un	4b\	-un	.
8B\	.	.	.	.	.	.	.	.	.
8c\	.	.	4g/	mor-	4g/	mor-	4b\	mor-	.
8c#X\J	.	.	.	.	.	.	.	.	.
2d\)	2f#/ 2a	.	(4d/	-tel	2f#/	-tel	2a/	-tel	.
.	.	.	4c/)	.	.	.	.	.	.
!LO:LB:g=original	!LO:LB:g=original	!	!LO:LB:g=original	!	!LO:LB:g=original	!	!LO:LB:g=original	!	!
=59	=59	=59	=59	=59	=59	=59	=59	=59	=59
2GG/ 2G	4.b\ 4.dd	.	4.B/	Pour	4.b/	Pour	4.dd\	Pour	.
.	8a\ 8cc	.	8c/	ouv-	8a/	ouv-	8cc\	ouv-	.
4GG/ 4G	4g\ 4b	.	4d/	-rir	4g/	-rir	4b\	-rir	.
8.BBB/L 8.BB	8.b\L 8.dd	.	(8.B/L	à	(8.b/L	à	(8.dd\L	à	.
16CC/Jk 16C	16a\Jk 16cc	.	16c/Jk)	.	16a/Jk)	.	16cc\Jk)	.	.
=60	=60	=60	=60	=60	=60	=60	=60	=60	=60
4DD/ 4D	4g/ 4b	.	4d/	tous	4g/	tous	4b/	tous	.
4DD/ 4D	4f#/ 4a	.	4d/	le	4f#/	le	4a/	le	.
2GG/ 2G	2B/ 2g	.	2g/	Ciel	2g/	Ciel	2g/	Ciel	.
=61	=61	=61	=61	=61	=61	=61	=61	=61	=61
2GG/ 2G	4g\ 4b 4dd	.	2g/	Le	2b/	Le	(4dd\	Le	.
.	4g\ 4b 4gg	.	.	.	.	.	4gg\)	.	.
2CC/ 2C	2g\ 2cc 2ee	.	2c/	Dieu	2g/	Dieu	2ee\	Dieu	.
=62	=62	=62	=62	=62	=62	=62	=62	=62	=62
4GG'/	4d\ 4b 4dd	.	4g/	qui	4b/	qui	4dd\	qui	.
4BB/	4d\ 4b 4dd	.	4g/	dans	4b/	dans	4dd\	dans	.
4D'\	4d\ 4a 4cc	.	4d/	sa	4a/	sa	4cc\	sa	.
4F#'\	4d\ 4a 4cc	.	4f#/	ten-	4a/	ten-	4cc\	ten-	.
=63	=63	=63	=63	=63	=63	=63	=63	=63	=63
4G'\	4d/ 4g 4b	.	(2g/	-dres-	(2g/	-dres-	(2b\	-dres-	.
4B'\	4d/ 4g 4b	.	.	.	.	.	.	.	.
4d'\	2f#/ 2a	.	4d/)	.	4f#/)	.	4a/)	.	.
4D'\	.	.	4c/	-se	4f#/	-se	4a/	-se	.
!LO:LB:g=original	!LO:LB:g=original	!	!LO:LB:g=original	!	!LO:LB:g=original	!	!LO:LB:g=original	!	!
=64	=64	=64	=64	=64	=64	=64	=64	=64	=64
4GG/	4g\ 4dd	.	2B/	souf-	2g/	souf-	2dd\	souf-	.
4BB/	4g\ 4dd	.	.	.	.	.	.	.	.
.	8qdd/	.	.	.	.	.	.	.	.
4C/	(8a\L 8cc	.	4c/	-frit	4a/	-frit	4cc\	-frit	.
.	8g#X\ 8b	.	.	.	.	.	.	.	.
4E\	8a\ 8cc	.	4c/	comme	4a/	comme	4cc\	comme	.
.	8b\J) 8dd	.	.	.	.	.	.	.	.
=65	=65	=65	=65	=65	=65	=65	=65	=65	=65
4D\	4gn/ 4b	.	4B/	un	4g/	un	4b\	un	.
4d\	4g/ 4b	.	(8c/L	mor-	4g/	mor-	4b\	mor-	.
.	.	.	8c#X/J)	.	.	.	.	.	.
4D\	16f#/LL 16a	.	2d/	-tel	2f#/	-tel	2a/	-tel	.
.	16d/	.	.	.	.	.	.	.	.
.	16e/	.	.	.	.	.	.	.	.
.	16f#/JJ	.	.	.	.	.	.	.	.
4DD/	16g/LL	.	.	.	.	.	.	.	.
.	16a/	.	.	.	.	.	.	.	.
.	16b/	.	.	.	.	.	.	.	.
.	16cc/JJ	.	.	.	.	.	.	.	.
=66	=66	=66	=66	=66	=66	=66	=66	=66	=66
2GGG/ 2GG	4.d/ 4.b 4.dd	f	4.g/	pour	4.b/	pour	4.dd\	pour	.
.	8a\ 8cc	.	8g/	ouv-	8a/	ouv-	8cc\	ouv-	.
8GGG/L 8GG	4g\ 4b	.	4g/	-rir	4g/	-rir	4b\	-rir	.
8AAA/ 8AA	.	.	.	.	.	.	.	.	.
8.BBB/ 8.BB	8.b\L 8.dd	sf <	8.B/L	à	8.b/L	à	8.dd\L	à	.
16CC/Jk 16C	16a\Jk 16cc	.	16c/Jk	.	16a/Jk	.	16cc\Jk	.	.
=67	=67	=67	=67	=67	=67	=67	=67	=67	=67
4DD/ 4D	4d/ 4g 4b	.	4d/	tous	4g/	tous	4b\	tous	.
4DD/ 4D	4c/ 4f# 4a	.	4c/	le	4f#/	le	4a/	le	.
2GG/ 2G	2B/ 2g	[ f	2B/	ciel	2g/	ciel	2g/	ciel	.
==	==	==	==	==	==	==	==	==	==
*-	*-	*-	*-	*-	*-	*-	*-	*-	*-
!!!RDF**kern: > = above
!!!RDF**kern: < = below
!!!system-decoration: [(s1,s2,s3)][(s4,s5)]
!!!ENC: Filip Voros
!!!END: 2022-08-08
!!!ENC: Julita Ruszuk
!!!END: 2022-09-04
!!!YEC: Copyright 2022 Narodowy Instytut Fryderyka Chopina (https://polishscores.org)
!!!YEM: License CC-BY-4.0 (https://creativecommons.org/licenses/by/4.0)
